src/assets/images/graffiti-yellow.svg

<?xml version="1.0" encoding="UTF-8" standalone="no"?>
<svg width="52px" height="52px" viewBox="0 0 52 52" version="1.1" xmlns="http://www.w3.org/2000/svg" xmlns:xlink="http://www.w3.org/1999/xlink">
    <!-- Generator: Sketch 3.6.1 (26313) - http://www.bohemiancoding.com/sketch -->
    <title>graffiti-yellow</title>
    <desc>Created with Sketch.</desc>
    <defs></defs>
    <g id="Page-1" stroke="none" stroke-width="1" fill="none" fill-rule="evenodd">
        <g id="map-icons" transform="translate(-120.000000, -104.000000)">
            <g id="graffiti-yellow" transform="translate(126.000000, 110.000000)">
                <circle id="Oval-5" stroke-opacity="0.61" stroke="#FFC107" stroke-width="12" fill="#FFC007" cx="20" cy="20" r="20"></circle>
                <path d="M30.2668824,6.08966667 L20.5027059,11.645 L30.2591029,17.1963333 C32.2022647,13.8723333 32.3531176,9.65066667 30.2668824,6.08966667 L30.2668824,6.08966667 L30.2668824,6.08966667 Z" id="Shape" fill="#FFFFFF"></path>
                <path d="M16.2747647,14.4226667 L16.2747647,13.034 L17.6841912,13.034 L17.6841912,10.2563333 L16.2747647,10.2563333 L13.45625,10.2563333 L12.0468235,10.2563333 L12.0468235,13.034 L13.45625,13.034 L13.45625,14.4226667 L10.6373971,14.4226667 L9.22830882,15.8116667 L9.22830882,33.889 L20.5027059,33.889 L20.5027059,15.8116667 L19.0932794,14.4226667 L16.2747647,14.4226667 L16.2747647,14.4226667 Z" id="Shape" fill="#FFFFFF"></path>
            </g>
        </g>
    </g>
</svg>

<svg width="52" height="52" viewBox="0 0 52 52" xmlns="http://www.w3.org/2000/svg"><title>graffiti-yellow</title><g transform="translate(6 6)" fill="none" fill-rule="evenodd"><circle stroke-opacity=".61" stroke="#FFC107" stroke-width="12" fill="#FFC007" cx="20" cy="20" r="20"/><path d="M30.267 6.09l-9.764 5.555 9.756 5.551c1.943-3.324 2.094-7.545.008-11.106zM16.275 14.423v-1.389h1.41v-2.778h-5.639v2.778h1.41v1.389h-2.819l-1.409 1.389v18.077h11.275V15.812l-1.41-1.39h-2.818z" fill="#FFF"/></g></svg>
